X:1
T:I Walk the Road Again
M:4/4
L:1/8
K:F
 A,| D3/2 D/2 DE A/2 G3/2 E3/2 E/2| D/2 C3/2 A,3/2 A,/2 A,2 z A| A=B cB AG E3/2 E/2|\
 E3/2 D/2 C3/2 D/2 E2| z E| A =B/2B/2 cB A G/2G/2 E3/2 E/2| AE C/2 C D/2 E2 A,3/2 A,/2|\
 D D/2D/2 D3.99999962500005/5.99999925000009 E3.99999962500005/5.99999925000009 F3.99999962500005/5.99999925000009 A/2 G3/2 E3/2 E/2|\
 D3/2 ^C/2 A,3/2 A,/2 A,2 zA,/2-A,/2|(2D3.99999962500005/5.99999925000009D3.99999962500005/5.99999925000009D3.99999962500005/5.99999925000009 D3.99999962500005/5.99999925000009 D3/2 E/2 A3/2 G/2 E- E/2E/2|\
 D^C A,3/2 A,/2 A,2 z A,/2A,/2| D3.99999962500005/5.99999925000009 D3.99999962500005/5.99999925000009 D3.99999962500005/5.99999925000009 D3/2 E/2 A3/2 G/2 E E/2E/2|\
 D^C A,3/2 A,/2 A,4|

